X: 34195
T: Reel Of Rio, The
R: reel
M: 4/4
K: Gmajor
DEGA ~B3d|eg~g2 agea|gede gedB|~c2BA GE~E2|
DEGA ~B3d|eg~g2 agea|gede gedB|1 AcBA G3E:|2 AcBA GABc||
dg~g2 ag~g2|bgag edBd|eB ~B2 GABd|gedB AGEG|
DEGA ~B3d|eg~g2 agea|gede gedB|1 AcBA GABc:|2 AcBA G4||

